public/media/icons-technologies/TYPESCRIPT.svg

<svg xmlns="http://www.w3.org/2000/svg" fill="none" viewBox="0 0 140 140">
  <g clip-path="url(#a)">
    <path fill="#007ACC" d="M10 70V10h120v120H10"/>
    <path fill="#fff" d="M36.31 70.21v4.89h15.6v44.4h11.07V75.1h15.6v-4.8c0-2.7 0-4.89-.12-4.95 0-.09-9.51-.12-21.06-.12l-21 .09v4.92l-.09-.03Zm70.11-5.01c3.06.72 5.4 2.1 7.5 4.29 1.11 1.2 2.76 3.3 2.88 3.84 0 .18-5.19 3.69-8.34 5.64-.12.09-.6-.42-1.08-1.2-1.56-2.22-3.15-3.18-5.64-3.36-3.6-.24-6 1.65-6 4.8 0 .96.18 1.5.54 2.28.81 1.65 2.31 2.64 6.96 4.68 8.58 3.69 12.3 6.12 14.55 9.6 2.55 3.9 3.12 10.02 1.41 14.61-1.92 5.01-6.6 8.4-13.29 9.51-2.1.36-6.9.3-9.15-.09-4.8-.9-9.39-3.3-12.21-6.39-1.11-1.2-3.24-4.41-3.12-4.62l1.14-.72 4.5-2.61 3.39-1.98.78 1.05a16.33 16.33 0 0 0 4.5 4.38c3.9 2.01 9.12 1.74 11.7-.6a4.5 4.5 0 0 0 1.59-3.6c0-1.38-.21-2.01-.9-3.06-.96-1.32-2.88-2.4-8.28-4.8-6.21-2.64-8.85-4.32-11.31-6.9a17.04 17.04 0 0 1-3.3-6c-.45-1.74-.6-6-.18-7.71 1.29-6 5.82-10.2 12.3-11.4 2.1-.42 7.05-.24 9.12.3l-.06.06Z"/>
  </g>
  <defs>
    <clipPath id="a">
      <path fill="#fff" d="M0 0h120v120H0z" transform="translate(10 10)"/>
    </clipPath>
  </defs>
</svg>

<svg width="140" height="140" viewBox="0 0 140 140" fill="none" xmlns="http://www.w3.org/2000/svg">
<g clip-path="url(#clip0_205_1384)">
<path d="M10 70V10H130V130H10" fill="#007ACC"/>
<path d="M36.31 70.21V75.1H51.91V119.5H62.98V75.1H78.58V70.3C78.58 67.6 78.58 65.41 78.46 65.35C78.46 65.26 68.95 65.23 57.4 65.23L36.4 65.32V70.24L36.31 70.21ZM106.42 65.2C109.48 65.92 111.82 67.3 113.92 69.49C115.03 70.69 116.68 72.79 116.8 73.33C116.8 73.51 111.61 77.02 108.46 78.97C108.34 79.06 107.86 78.55 107.38 77.77C105.82 75.55 104.23 74.59 101.74 74.41C98.14 74.17 95.74 76.06 95.74 79.21C95.74 80.17 95.92 80.71 96.28 81.49C97.09 83.14 98.59 84.13 103.24 86.17C111.82 89.86 115.54 92.29 117.79 95.77C120.34 99.67 120.91 105.79 119.2 110.38C117.28 115.39 112.6 118.78 105.91 119.89C103.81 120.25 99.01 120.19 96.76 119.8C91.96 118.9 87.37 116.5 84.55 113.41C83.44 112.21 81.31 109 81.43 108.79L82.57 108.07L87.07 105.46L90.46 103.48L91.24 104.53C92.23 106.09 94.45 108.19 95.74 108.91C99.64 110.92 104.86 110.65 107.44 108.31C108.55 107.29 109.03 106.21 109.03 104.71C109.03 103.33 108.82 102.7 108.13 101.65C107.17 100.33 105.25 99.25 99.85 96.85C93.64 94.21 91 92.53 88.54 89.95C87.13 88.39 85.84 85.96 85.24 83.95C84.79 82.21 84.64 77.95 85.06 76.24C86.35 70.24 90.88 66.04 97.36 64.84C99.46 64.42 104.41 64.6 106.48 65.14L106.42 65.2Z" fill="white"/>
</g>
<defs>
<clipPath id="clip0_205_1384">
<rect width="120" height="120" fill="white" transform="translate(10 10)"/>
</clipPath>
</defs>
</svg>
